X: 181936
T: Riding on a Load of Hay 
S: "Roche Collection of Traditional Irish Music" [II/61/343]
L: 1/8
M: 2/4
R: polka
K: Edor
z | EF GA | Be e2 | dB AG | FD DF |
EF GA | Be ef | ge ^dB | e2 e :|
f | ge f^d | eB B^c | dB AG | FD Df |
ge f^d | eB B^c | dB AF | E2 ef |
ge f^d | eB B^c | dB Ad | FD AF |
EG FA | GB eg | fd af | e2 e |]
